!!!OTL: "Der verrathene Ritter " GAR HEIMLICH GEHT DER MOND AUF
!!!ARE: Europa, Mitteleuropa, Deutschland
!!!SCT: Z1013
!!!YEM: Copyright 1995, estate of Helmut Schaffrath.
**kern
*ICvox
*Ivox
*M2/4
*k[c-e-a-]
*c:
{8G
=1
8c
8d
8e-
8c
=2
8B
8c
8d
8r}
=3
{4c
4g
=4
8f
8g
8c}
{8c
=5
8d
8d
8g
8g
=6
8e-
16d
16e-
4c}
=7
{8c
16B
16c
4d
=8
8c
16B
16c
4d}
=9
{4c
8g
8g
=10
8e-
16d
16e-
8c}
==
!!!AGN: Romanze, Ballade
!!!ONB: ESAC (Essen Associative Code) Database: ZUCCAL
!!!AMT: simple duple
!!!AIN: vox
!!!EED: Helmut Schaffrath
!!!EEV: 1.0
*-
